!!!COM: Balsamino, Simone
!!!CDT:
!!!PTL: Novellette a sei voci
!!!PPP: Venice
!!!PPR: Amadino
!!!PDT: 1594
!!!PUB-format:
!!!RISM: B 785
!!!OTL: Già per lungo uso a ragionar d'amore
!!!AGN: Madrigal
!!!SCT: Tam2031106a
!!!SCA: Tam2031106a
!!!original-voices: 6
!!!extant-voices: 6
!!!complete: Y
!!!final: (F)F
**kern	**text	**kern	**text	**kern	**text	**kern	**text	**kern	**text	**kern	**text
*part6	*part6	*part5	*part5	*part4	*part4	*part3	*part3	*part2	*part2	*part1	*part1
*staff6	*staff6	*staff5	*staff5	*staff4	*staff4	*staff3	*staff3	*staff2	*staff2	*staff1	*staff1
*I"Basso	*	*I"Quinto	*	*I"Tenore	*	*I"Alto	*	*I"Sesto	*	*I"Canto	*
*I'B	*	*I'V	*	*I'T	*	*I'A	*	*I'VI	*	*I'C	*
*oclefF4	*	*oclefC4	*	*oclefC4	*	*oclefC3	*	*oclefC1	*	*oclefC1	*
*clefF4	*	*clefGv2	*	*clefGv2	*	*clefG2	*	*clefG2	*	*clefG2	*
*k[b-]	*	*k[b-]	*	*k[b-]	*	*k[b-]	*	*k[b-]	*	*k[b-]	*
*d:	*	*d:	*	*d:	*	*d:	*	*d:	*	*d:	*
*omet(C)	*	*omet(C)	*	*omet(C)	*	*omet(C)	*	*omet(C)	*	*omet(C)	*
*M4/2	*	*M4/2	*	*M4/2	*	*M4/2	*	*M4/2	*	*M4/2	*
=1	=1	=1	=1	=1	=1	=1	=1	=1	=1	=1	=1
!!LO:TX:a:t=[Undicesima parte]
2F	Già	0r	.	2c	Già	0r	.	0r	.	2a	Già
4F	per	.	.	4c	per	.	.	.	.	4a	per
4G	lun-	.	.	4B-y	lun-	.	.	.	.	4b-y	lun-
4F	-go u-	.	.	2c	-go u-	.	.	.	.	2a	-go u-
4F	-so a	.	.	.	.	.	.	.	.	.	.
4.BB-y	ra-	.	.	2d	-so a	.	.	.	.	2b-y	-so a
8C	-gio-	.	.	.	.	.	.	.	.	.	.
=2	=2	=2	=2	=2	=2	=2	=2	=2	=2	=2	=2
4.D	-nar	0r	.	4.A	ra-	0r	.	0r	.	4.f	ra-
8E	d'a-	.	.	8c	-gio-	.	.	.	.	8g	-gio-
1F	-mo-	.	.	4.A	-nar	.	.	.	.	4.a	-nar
.	.	.	.	8G	d'a-	.	.	.	.	8b-y	d'a-
.	.	.	.	2A	-mo-	.	.	.	.	2cc	-mo-
4F	-re:	.	.	4A	-re:	.	.	.	.	4cc	-re:
4F	A	.	.	4A	A	.	.	.	.	4cc	A
=3	=3	=3	=3	=3	=3	=3	=3	=3	=3	=3	=3
4G	me	0r	.	4B-y	me	0r	.	0r	.	4b-y	me
4.F	le-	.	.	4.c	le-	.	.	.	.	4.a	le-
8F	-ga	.	.	8c	-ga	.	.	.	.	8a	-ga
4E	la	.	.	4c	la	.	.	.	.	4g	la
2D	lin-	.	.	2F	lin-	.	.	.	.	2a	lin-
2BB-y	-gua	.	.	2F	-gua	.	.	.	.	4d	-gua
.	.	.	.	.	.	.	.	.	.	4dd	Quel
=4	=4	=4	=4	=4	=4	=4	=4	=4	=4	=4	=4
2F	Quel	0r	.	2A	Quel	0r	.	0r	.	4cc	che
.	.	.	.	.	.	.	.	.	.	4cc	mi
4C	che	.	.	4G	che	.	.	.	.	1cc	le-
4C	mi	.	.	4G	mi	.	.	.	.	.	.
2.D	le-	.	.	2F#X	le-	.	.	.	.	.	.
.	.	.	.	2G	-ga il	.	.	.	.	2b-y	-ga il
4D	-ga il	.	.	.	.	.	.	.	.	.	.
=5	=5	=5	=5	=5	=5	=5	=5	=5	=5	=5	=5
*	*	*	*	*	*	*	*	*	*	*lig	*
1D	co-	2r	.	4F#X	co-	0r	.	0r	.	1a	co-
.	.	.	.	4E	.	.	.	.	.	.	.
.	.	2d	Già	2F#i	.	.	.	.	.	.	.
[1GG	-re.	4d	per	4G	-re.	.	.	.	.	1g	.
*	*	*	*	*	*	*	*	*	*	*Xlig	*
.	.	4e-X	lun-	4G	Già	.	.	.	.	.	.
.	.	4d	-go u-	4B-y	per	.	.	.	.	.	.
.	.	4d	-so a	4B-y	lun-	.	.	.	.	.	.
=6	=6	=6	=6	=6	=6	=6	=6	=6	=6	=6	=6
1GG]	.	4.G	ra-	4.B-y	-go u-	1r	.	2dd	Già	0g	-re.
.	.	8A	-gio-	8A	-so a	.	.	.	.	.	.
.	.	4.B-y	-nar	4G	ra-	.	.	4dd	per	.	.
.	.	.	.	4G	-gio-	.	.	4ee-i	lun-	.	.
.	.	8c	d'a-	.	.	.	.	.	.	.	.
[1GG	Già	2d	-mo-	4.B-y	-nar	2r	.	4dd	-go u-	.	.
.	.	.	.	.	.	.	.	4dd	-so a	.	.
.	.	.	.	8c	d'a-	.	.	.	.	.	.
.	.	2B-y	-re,	2d	-mo-	2d	Già	4.g	ra-	.	.
.	.	.	.	.	.	.	.	8a	-gio-	.	.
=7	=7	=7	=7	=7	=7	=7	=7	=7	=7	=7	=7
1GG]	.	1r	.	2G	-re,	4d	per	4.b-y	-nar	2g	Già
.	.	.	.	.	.	4e-i	lun-	.	.	.	.
.	.	.	.	.	.	.	.	8cc	d'a-	.	.
.	.	.	.	2B-y	Già	4d	-go u-	4dd	-mo-	4g	per
.	.	.	.	.	.	4d	-so a	4dd	-re,	4f	lun-
[1C	per	2r	.	4G	per	4.c	ra-	1r	.	4.e	-go u-
.	.	.	.	4A	lun-	.	.	.	.	.	.
.	.	.	.	.	.	8d	-gio-	.	.	8d	-so a
.	.	4r	.	2G	-go u-	4.ei	-nar	.	.	4.c	ra-
.	.	4G	Già	.	.	.	.	.	.	.	.
.	.	.	.	.	.	8f	d'a-	.	.	8d	-gio-
=8	=8	=8	=8	=8	=8	=8	=8	=8	=8	=8	=8
1C]	.	4G	per	1c	-so,	4g	-mo-	0r	.	4.e	-nar
.	.	4A	lun-	.	.	4f	-re,	.	.	.	.
.	.	.	.	.	.	.	.	.	.	8f	d'a-
.	.	4G	-go u-	.	.	2e	per	.	.	2g	-mo-
.	.	4G	-so a	.	.	.	.	.	.	.	.
[1D	lun-	4.D	ra-	2A	Già	[1d	lun-	.	.	1f	-re,
.	.	8E	-gio-	.	.	.	.	.	.	.	.
.	.	4.F	-nar	4A	per	.	.	.	.	.	.
.	.	.	.	4B-y	lun-	.	.	.	.	.	.
.	.	8G	d'a-	.	.	.	.	.	.	.	.
=9	=9	=9	=9	=9	=9	=9	=9	=9	=9	=9	=9
0D_	.	2A	-mo-	4A	-go u-	0d_	.	2a	Già	0f	Già
.	.	.	.	4A	-so a	.	.	.	.	.	.
.	.	2F	-re,	4.D	ra-	.	.	4a	per	.	.
.	.	.	.	.	.	.	.	4b-y	lun-	.	.
.	.	.	.	8E	-gio-	.	.	.	.	.	.
.	.	1r	.	4.F	-nar	.	.	4a	-go u-	.	.
.	.	.	.	.	.	.	.	4a	-so a	.	.
.	.	.	.	8G	d'a-	.	.	.	.	.	.
.	.	.	.	4A	-mo-	.	.	4.d	ra-	.	.
.	.	.	.	4A	-re,	.	.	.	.	.	.
.	.	.	.	.	.	.	.	8e	-gio-	.	.
=10	=10	=10	=10	=10	=10	=10	=10	=10	=10	=10	=10
1D]	.	2r	.	1r	.	1d]	.	4.f	-nar	4a	per
.	.	.	.	.	.	.	.	.	.	4b-y	lun-
.	.	.	.	.	.	.	.	8g	d'a-	.	.
.	.	2F#X	Già	.	.	.	.	4a	-mo-	2a	-go u-
.	.	.	.	.	.	.	.	4a	-re,	.	.
1C	-go u-	4G	per	2r	.	1e	-go u-	1r	.	2cc	-so a
.	.	4A	lun-	.	.	.	.	.	.	.	.
.	.	4G	-go u-	4r	.	.	.	.	.	4.c	ra-
.	.	4G	-so a	4G	Già	.	.	.	.	.	.
.	.	.	.	.	.	.	.	.	.	8d	-gio-
=11	=11	=11	=11	=11	=11	=11	=11	=11	=11	=11	=11
1C	-so a	4.C	ra-	4G	per	1c	-so	1r	.	4.e	-nar
.	.	.	.	4A	lun-	.	.	.	.	.	.
.	.	8D	-gio-	.	.	.	.	.	.	8f	d'a-
.	.	4E	-nar	4G	-go u-	.	.	.	.	4g	-mo-
.	.	4E	d'a-	4c	-so a	.	.	.	.	4g	-re,
1FF	ra-	2F	-mo-	4.c	ra-	1r	.	4cc	a	4a	a
.	.	.	.	.	.	.	.	8a	ra-	8f	ra-
.	.	.	.	8B-y	-gio-	.	.	8b-y	-gio-	8g	-gio-
.	.	2F	-re,	2A	-nar,	.	.	4cc	-nar	4a	-nar
.	.	.	.	.	.	.	.	4cc	d'a-	4a	d'a-
=12	=12	=12	=12	=12	=12	=12	=12	=12	=12	=12	=12
1GG	-gio-	4B-y	a	4d	a	1r	.	2b-y	-mo-	2g	-mo-
.	.	8G	ra-	8B-y	ra-	.	.	.	.	.	.
.	.	8A	-gio-	8c	-gio-	.	.	.	.	.	.
.	.	4B-y	-nar	4d	-nar	.	.	2b-y	-re,	2g	-re,
.	.	4B-y	d'a-	4d	d'a-	.	.	.	.	.	.
1AA	-nar	2A	-mo-	2c	-mo-	4e	a	1r	.	4cc	a
.	.	.	.	.	.	8c	ra-	.	.	8a	ra-
.	.	.	.	.	.	8d	-gio-	.	.	8b-y	-gio-
.	.	2A	-re,	2c	-re,	4e	-nar	.	.	4cc	-nar
.	.	.	.	.	.	4e	d'a-	.	.	4cc	d'a-
=13	=13	=13	=13	=13	=13	=13	=13	=13	=13	=13	=13
1BB-y	d'a-	4G	a	2r	.	2d	-mo-	4dd	a	2b-y	-mo-
.	.	8D	ra-	.	.	.	.	8b-y	ra-	.	.
.	.	8E	-gio-	.	.	.	.	8cc	-gio-	.	.
.	.	4F	-nar	4r	.	2d	-re,	4dd	-nar	2b-y	-re,
.	.	4F	d'a-	4d	a	.	.	4dd	d'a-	.	.
1C	-mo-	1E	-mo-	4G	ra-	4e	a	1cc	-mo-	4g	a
.	.	.	.	4G	-gio-	8c	ra-	.	.	8e	ra-
.	.	.	.	.	.	8d	-gio-	.	.	8f	-gio-
.	.	.	.	4G	-nar	4e	-nar	.	.	4g	-nar
.	.	.	.	4G	d'a-	4c	d'a-	.	.	4g	d'a-
=14	=14	=14	=14	=14	=14	=14	=14	=14	=14	=14	=14
2FF	-re:	1F	-re:	2A	-mo-	2c	-mo-	1a	-re:	2f	-mo-
2F	A	.	.	4A	-re:	4c	-re:	.	.	4f	-re:
.	.	.	.	4c	A	4f	A	.	.	4a	A
4C	me	1r	.	4c	me	4e	me	1r	.	4g	me
4.D	le-	.	.	4.A	le-	4.d	le-	.	.	4.f	le-
8C	-ga	.	.	8c	-ga	8e	-ga	.	.	8g	-ga
4BB-y	la	.	.	4d	la	4f	la	.	.	4b-y	la
=15	=15	=15	=15	=15	=15	=15	=15	=15	=15	=15	=15
2F	lin-	4r	.	2c	lin-	2f	lin-	4r	.	2a	lin-
.	.	4c	A	.	.	.	.	4a	A	.	.
2BB-y	-gua,	4B-y	me	2d	-gua	1d	-gua,	4g	me	2b-y	-gua,
.	.	4.B-y	le-	.	.	.	.	4.f	le-	.	.
1r	.	.	.	1r	.	.	.	.	.	1r	.
.	.	8G	-ga	.	.	.	.	8g	-ga	.	.
.	.	4G	la	.	.	.	.	4b-y	la	.	.
.	.	2d	lin-	.	.	2f#X	A	2a	lin-	.	.
=16	=16	=16	=16	=16	=16	=16	=16	=16	=16	=16	=16
4r	.	4G	-gua,	0r	.	4g	me	4b-y	-gua,	4r	.
4.GG	le-	4.G	le-	.	.	4.d	le-	4.g	le-	4.b-y	le-
8D	-ga	8A	-ga	.	.	8d	-ga	8f	-ga	8a	-ga
4BB-y	la	4D	la	.	.	4d	la	4f	la	4b-y	la
2F	lin-	2A	lin-	.	.	2c	lin-	2f	lin-	2a	lin-
2BB-y	-gua	2D	-gua	.	.	[4d	-gua	4f	-gua	4b-y	-gua
.	.	.	.	.	.	4d]	Quel	4f	Quel	4b-y	Quel
=17	=17	=17	=17	=17	=17	=17	=17	=17	=17	=17	=17
4r	.	4r	.	1r	.	4c	che	4f	che	4a	che
4FF	Quel	4F	Quel	.	.	4c	mi	4f	mi	4a	mi
4FF	che	4F	che	.	.	1c	le-	1f	le-	1a	le-
4FF	mi	4F	mi	.	.	.	.	.	.	.	.
[2.GG	le-	2.D	le-	2r	.	.	.	.	.	.	.
.	.	.	.	4r	.	2BnX	-ga il	2e	-ga il	2g	-ga il
4GG]	-ga il	4D	-ga il	4G	Quel	.	.	.	.	.	.
=18	=18	=18	=18	=18	=18	=18	=18	=18	=18	=18	=18
1GG	co-	1D	co-	4G	che	1BnX	co-	1d	co-	1g	co-
.	.	.	.	4G	mi	.	.	.	.	.	.
.	.	.	.	2.G	le-	.	.	.	.	.	.
1C	-re,	1E	-re,	.	.	2.c	-re,	2.c	-re,	2.e	-re,
.	.	.	.	4F	-ga il	.	.	.	.	.	.
.	.	.	.	2E	co-	.	.	.	.	.	.
.	.	.	.	.	.	4c	Quel	4g	Quel	4e	Quel
=19	=19	=19	=19	=19	=19	=19	=19	=19	=19	=19	=19
4r	.	4r	.	2G	-re,	4B-y	che	4g	che	4d	che
4GG	Quel	4G	Quel	.	.	4B-y	mi	4g	mi	4d	mi
4GG	che	4G	che	2r	.	1B-y	le-	1g	le-	1d	le-
4GG	mi	4G	mi	.	.	.	.	.	.	.	.
2.AA	le-	2.E	le-	1r	.	.	.	.	.	.	.
.	.	.	.	.	.	2A	-ga il	2f	-ga il	2c#i	-ga il
4AA	-ga il	4E	-ga il	.	.	.	.	.	.	.	.
=20	=20	=20	=20	=20	=20	=20	=20	=20	=20	=20	=20
1AA	co-	1E	co-	0r	.	1A	co-	1e	co-	1c#X	co-
1D	-re,	1F#X	-re.	.	.	2.A	-re,	2d	-re,	2.d	-re,
.	.	.	.	.	.	.	.	2a	Quel	.	.
.	.	.	.	.	.	4A	Quel	.	.	4d	Quel
=21	=21	=21	=21	=21	=21	=21	=21	=21	=21	=21	=21
4r	.	0r	.	4r	.	4d	che	4b-y	che	4f	che
4BB-y	Quel	.	.	4B-y	Quel	4d	mi	4b-y	mi	4f	mi
4BB-y	che	.	.	4B-y	che	1d	le-	1b-y	le-	1f	le-
4BB-y	mi	.	.	4B-y	mi	.	.	.	.	.	.
[2.C	le-	.	.	2.G	le-	.	.	.	.	.	.
.	.	.	.	.	.	2c	-ga il	2a	-ga il	2e	-ga il
4C]	-ga il	.	.	4G	-ga il	.	.	.	.	.	.
=22	=22	=22	=22	=22	=22	=22	=22	=22	=22	=22	=22
1C	co-	1r	.	1G	co-	1c	co-	1g	co-	1e	co-
4FF	-re.	4r	.	4A	-re.	4c	-re.	4f	-re.	4f	-re.
4FF	Già	4F	Già	4c	Già	4f	Già	4cc	Già	4a	Già
4FF	per	4F	per	4c	per	4f	per	4cc	per	4a	per
4BB-y	lun-	4F	lun-	4B-y	lun-	4f	lun-	4dd	lun-	4b-y	lun-
=23	=23	=23	=23	=23	=23	=23	=23	=23	=23	=23	=23
4FF	-go u-	4F	-go u-	4c	-go u-	4f	-go u-	4cc	-go u-	4a	-go u-
4FF	-so a	4F	-so a	4c	-so a	4f	-so a	4cc	-so a	4a	-so a
4C	ra-	4G	ra-	4c	ra-	4e	ra-	4cc	ra-	4g	ra-
4GG	-gio-	4G	-gio-	4B-y	-gio-	4d	-gio-	4dd	-gio-	4g	-gio-
4D	-nar	4F	-nar	4F	-nar	4d	-nar	4dd	-nar	4a	-nar
4BB-y	d'a-	4F	d'a-	4B-y	d'a-	4d	d'a-	4dd	d'a-	4b-y	d'a-
2F	-mo-	2F	-mo-	2c	-mo-	2f	-mo-	2cc	-mo-	2a	-mo-
=24	=24	=24	=24	=24	=24	=24	=24	=24	=24	=24	=24
4F	-re:	4F	-re:	1c	-re:	4f	-re:	4cc	-re:	4a	-re:
4FF	A	4F	A	.	.	4f	A	4a	A	4cc	A
4C	me	4G	me	.	.	4e	me	4g	me	4cc	me
2C	le-	2G	le-	.	.	2e	le-	2g	le-	2cc	le-
.	.	.	.	1r	.	.	.	.	.	.	.
4C	-ga	4G	-ga	.	.	4e	-ga	4g	-ga	4cc	-ga
2GG	la	2G	la	.	.	2d	la	2g	la	2b-y	la
=25	=25	=25	=25	=25	=25	=25	=25	=25	=25	=25	=25
[0D	lin-	2A	lin-	0r	.	[0d	lin-	2f#X	lin-	2a	lin-
.	.	2B-y	.	.	.	.	.	2g	.	2g	.
.	.	2A	.	.	.	.	.	2a	.	2f#X	.
.	.	2G	.	.	.	.	.	2b-y	.	2g	.
=26	=26	=26	=26	=26	=26	=26	=26	=26	=26	=26	=26
0D]	.	2F#X	.	0r	.	1d]	.	2a	.	2a	.
.	.	2G	.	.	.	.	.	1g	.	2b-y	.
.	.	2A	.	.	.	1d	-gua	.	.	2a	.
.	.	2A	-gua	.	.	.	.	4f#X	-gua	4a	-gua
.	.	.	.	.	.	.	.	4f#i	Quel	4d	Quel
=27	=27	=27	=27	=27	=27	=27	=27	=27	=27	=27	=27
4D	-gua	0r	.	4r	.	4f	Quel	4dd	che	4a	che
4D	Quel	.	.	4d	Quel	4f	che	4dd	mi	4a	mi
4D	che	.	.	4d	che	4f	mi	2.dd	le-	2.a	le-
4D	mi	.	.	4d	mi	2f	le-	.	.	.	.
2.E-X	le-	.	.	2.B-y	le-	.	.	.	.	.	.
.	.	.	.	.	.	4e-X	-ga il	4cc	-ga il	4g	-ga il
.	.	.	.	.	.	2e-i	co-	2b-y	co-	2g	co-
4E-i	-ga il	.	.	4G	-ga il	.	.	.	.	.	.
=28	=28	=28	=28	=28	=28	=28	=28	=28	=28	=28	=28
1F	co-	4r	.	1A	co-	2.c	-re,	2.a	-re,	2.f	-re,
.	.	4c	Quel	.	.	.	.	.	.	.	.
.	.	4c	che	.	.	.	.	.	.	.	.
.	.	4c	mi	.	.	4f	Quel	4a	Quel	4cc	Quel
4BB-y	-re,	2B-y	le-	4D	-re,	4f	che	4b-y	che	4dd	che
4BB-y	Quel	.	.	4F	Quel	4f	mi	4b-y	mi	4dd	mi
4BB-y	che	2F	-ga il	4D	che	[2f	le-	[2b-y	le-	[2dd	le-
4BB-y	mi	.	.	4D	mi	.	.	.	.	.	.
=29	=29	=29	=29	=29	=29	=29	=29	=29	=29	=29	=29
2.C	le-	0c	co-	2G	le-	2f]	.	2b-y]	.	2dd]	.
.	.	.	.	2G	-ga il	2e	-ga il	2a	-ga il	2cc	-ga il
4C	-ga il	.	.	.	.	.	.	.	.	.	.
1C	co-	.	.	1G	co-	4e	co-	1g	co-	1cc	co-
.	.	.	.	.	.	2f	.	.	.	.	.
.	.	.	.	.	.	4e	.	.	.	.	.
=30	=30	=30	=30	=30	=30	=30	=30	=30	=30	=30	=30
00FFl	-re.	00cl	-re.	00Fl	-re.	00fl	-re.	00al	-re.	00al	-re.
==	==	==	==	==	==	==	==	==	==	==	==
*-	*-	*-	*-	*-	*-	*-	*-	*-	*-	*-	*-
!!!system-decoration: [*]
!!!RDF**kern: i = editorial accidental
!!!RDF**kern: l = terminal long
!!!ENC: Emiliano Ricciardi
!!!END: 2018/11/20
!!!EED: Coluzzi, Seth
!!!EEV: 2019/01/21
!!!YEC: Copyright 2018 Emiliano Ricciardi, All Rights Reserved
!!!ONB: Translated from MusicXML on 2019/01/21
!!@@BEGIN:	VERSEDATA
!!@CATALOGNUM:	Tam2031106
!!@LAST_MODIFIED: 2020/07/12
!!@ACT:         II
!!@SCENE:       3
!!@VERSE:       1106
!!@TITLE:       Già per lungo uso a ragionar d'amore
!!@MANUSRC:	A-Am, A-Au, A-Br, A-CM, A-F, A-Ub
!!@PRINTSRC:	A-1580D, A-1580M, A-1581B, A-1581B<sub>bis</sub>, A-1581M, A-1581M<sub>bis</sub>, A-1581O, A-1581V, A-1582B, A-1583M, A-1583V, A-1584A, A-1585C, A-1585V, A-1585V<sub>bis</sub>, A-1588B, A-1589M, A-1589V, A-1590Mb, A-1590Mv, A-1591M, A-1591W, A-1592B, A-1596B, A-1596M, A-1599Bf, A-1599Bp, A-1600R, A-1601Bf, A-1601Bp, A-1602B, A-1603Bf, A-1603Bv, A-1603Z, A-1605R, A-1606Z, A-1608D, A-1608DP, A-1609Bf, A-1609Bv, A-1609Z, A-1611D, A-1614GT, A-1617D, A-1618B, A-1619D, A-1619I, A-1620V, A-1622D, A-1623A, A-1624M, A-1624S, A-1624T, A-1625U, A-1628U, A-1632D, A-1634R
!!@@BEGIN:	VERSES
!!@ABOUTIT:	
!!@ABOUTEN:	
!!@EDITOR:	Solerti, Angelo
!!@EDITION_TITLE: Opere minori in versi di Torquato Tasso. Edizione critica sugli autografi e sulle antiche stampe.
!!@EDITION_LOC:	Bologna
!!@EDITION_PUB:	Zanichelli
!!@EDITION_DATE:  1895
!!@EDITION_VOL:	3
!!@EDITION_PAGE:
!!@TRANSLATOR:	Emiliano Ricciardi and Amyrose McCue Gill
!!@VERSE:	
!!	AMINTA: Già per lungo uso a ragionar d'amore:
!!	A me lega la lingua
!!	Quel che mi lega il core.
!!@TVERSE:
!!	AMINTA: Already for long used to reasoning of love:
!!	My tongue is tied [by]
!!	That which ties my heart.
!!@@END:		VERSES
!!@NEW_CRIT_ED:   Torquato Tasso, <i>Aminta. "Princeps."</i>, ed. Matteo Navone, vol. 9 of Commissione Nazionale per l'Edizione delle opere del Tasso. Studi e Testi (Alessandria: Edizioni dell'Orso, 2014).
!!@ATTRIBUTION_ABOUT:	
!!@DATING:	1573
!!@DEDICATEE:	
!!@COMMENTARY:
!!@@END:		VERSEDATA
!!@@BEGIN: SETTING
!!@CATALOGNUM:	Tam2031106a
!!@ACT:		II
!!@SCENE:		3
!!@VERSE:		1106
!!@TITLE:		Già per lungo uso a ragionar d'amore
!!@COMPOSER:	Balsamino, Simone
!!@PRINCEPSTITLE:	Novellette a sei voci
!!@PRINCEPSLOC:	Venice
!!@NORMLOC:	Venice
!!@NORMPUB:	Amadino
!!@NORMPUBSHORT:	Amadino
!!@PRINCEPSPUB:	Amadino
!!@PRINCEPSYEAR:	1594
!!@PRINCEPSRISM:	B 785
!!@OVOICES:	6
!!@EXTANTVOICES:	6
!!@OMENSURATION:	C
!!@OCLEFS:	C1,C1,C3,C4,C4,F4
!!@OTIME:		
!!@OKEYSIG:	b-
!!@FINAL:		(F)F
!!@TIMPEDITOR:	Coluzzi, Seth
!!@PARTS:		1 of 1
!!@REPRINTS:	
!!@@END: SETTING
